svgs/sharp-regular/vector-polygon.svg

<svg xmlns="http://www.w3.org/2000/svg" viewBox="0 0 448 512"><!--! Font Awesome Pro 6.6.0 by @fontawesome - https://fontawesome.com License - https://fontawesome.com/license (Commercial License) Copyright 2024 Fonticons, Inc. --><path d="M408 72l0 48-48 0 0-48 48 0zM360 32l-40 0 0 40L128 72l0-40L88 32 40 32 0 32 0 72l0 48 0 40 40 0 0 192L0 352l0 40 0 48 0 40 40 0 48 0 40 0 0-40 192 0 0 40 40 0 48 0 40 0 0-40 0-48 0-40-40 0-34.4 0L352 316l0-36 0-48 0-36 21.6-36 34.4 0 40 0 0-40 0-48 0-40-40 0-48 0zM298.4 320L320 356l0 36-192 0 0-40-40 0 0-192 40 0 0-40 192 0 0 36-21.6 36L264 192l-40 0 0 40 0 48 0 40 40 0 34.4 0zM40 392l48 0 0 48-48 0 0-48zm320 0l48 0 0 48-48 0 0-48zM40 72l48 0 0 48-48 0 0-48zM312 232l0 48-48 0 0-48 48 0z"/></svg>

<svg xmlns="http://www.w3.org/2000/svg" viewBox="0 0 448 512"><!--! Font Awesome Pro 6.4.0 by @fontawesome - https://fontawesome.com License - https://fontawesome.com/license (Commercial License) Copyright 2023 Fonticons, Inc. --><path d="M408 72v48H360V72h48zM360 32H320V72H128V32H88 40 0V72v48 40H40V352H0v40 48 40H40 88h40V440H320v40h40 48 40V440 392 352H408 373.6L352 316V280 232 196l21.6-36H408h40V120 72 32H408 360zM298.4 320L320 356v36H128V352H88V160h40V120H320v36l-21.6 36H264 224v40 48 40h40 34.4zM40 392H88v48H40V392zm320 0h48v48H360V392zM40 72H88v48H40V72zM312 232v48H264V232h48z"/></svg>
